X:1
T:Moll Roe
L:1/8
Q:1/4=180
M:9/8
K:G
|:"G""^Moll Roe""^\n""^End of gig. Thanks to audience, players, sound, etc., 16 bars into final Whalley Range set..." DGG GAG FGA |"G" B3 GAB"C" c3 |"G" DGG GAG FGA |"C" B3"D" cAF"G" G2 A ::
"D" ded cAG FGA |"G" ded cAB"C" c3 |"D" ded cAG FGA |"D" B3"C" cAF"G" G2 B :|
